src/icons/haskell.svg

<svg width="16" height="16" viewBox="0 0 16 16" fill="none" xmlns="http://www.w3.org/2000/svg">
<path d="M4.82397 12.5L7.64697 8L4.82397 3.5H6.93997L12.587 12.5H10.47L8.70497 9.688L6.93997 12.5H4.82397ZM11.647 9.875L10.706 8.375H14V9.875H11.647ZM10.235 7.625L9.29497 6.125H14V7.625H10.235Z" fill="#9883EC"/>
<path d="M4.824 8L2 12.5H4.118L6.94 8L4.118 3.5H2L4.824 8Z" fill="#3965BD"/>
</svg>

<svg xmlns="http://www.w3.org/2000/svg" width="16" height="16" fill="none"><path fill="#9883EC" d="M4.824 12.5 7.647 8 4.824 3.5H6.94l5.647 9h-2.117L8.705 9.688 6.94 12.5zm6.823-2.625-.941-1.5H14v1.5zm-1.412-2.25-.94-1.5H14v1.5z"/><path fill="#3965BD" d="M4.824 8 2 12.5h2.118L6.94 8 4.118 3.5H2z"/></svg>
